agir/people/components/contacts/CreateContactPage/images/bg-large.svg

<svg width="680" height="158" viewBox="0 0 680 158" fill="none" xmlns="http://www.w3.org/2000/svg">
<rect width="680" height="158" fill="white"/>
<path d="M181.756 43.8849H190.161V76.8762H199.381V84.576H181.756V43.8849Z" fill="#3F2682"/>
<path d="M197.332 43.8849H205.549V51.5847L197.332 58.4716V43.8849Z" fill="#3F2682"/>
<path d="M228.986 43.8849V76.5011C228.986 81.6966 226.602 84.576 222.024 84.576H214.622C210.482 84.576 207.786 81.8849 207.786 76.6252V43.8849H216.128V76.8762H220.581V43.8849H228.986Z" fill="#3F2682"/>
<path d="M243.266 84.576L240.255 72.4936C239.252 68.8626 238.123 61.9771 237.119 55.655C237.37 61.4765 237.62 67.4864 237.62 70.4285V84.576H230.721V43.8849H240.507L244.145 59.0977C245.337 63.7299 246.653 70.9919 247.72 76.8762C247.343 71.6807 246.967 65.9832 246.967 62.1654V43.8849H253.866V84.576H243.266Z" fill="#3F2682"/>
<path d="M256.02 43.8849H264.423V84.576H256.02V43.8849Z" fill="#3F2682"/>
<path d="M266.286 76.6237V52.0867C266.286 46.9525 268.857 43.8849 273.122 43.8849H280.336C285.291 43.8849 287.549 46.9496 287.549 52.2108V76.5011C287.549 81.6966 285.166 84.576 280.587 84.576H273.13C268.983 84.576 266.286 81.8849 266.286 76.6237ZM279.207 76.8747V51.6474H274.629V76.8762L279.207 76.8747Z" fill="#3F2682"/>
<path d="M302.185 84.576L299.174 72.4936C298.169 68.8626 297.04 61.9771 296.037 55.655C296.287 61.4765 296.539 67.4864 296.539 70.4285V84.576H289.64V43.8849H299.424L303.062 59.0977C304.254 63.7299 305.571 70.9919 306.637 76.8762C306.261 71.6807 305.884 65.9832 305.884 62.1654V43.8849H312.785V84.576H302.185Z" fill="#3F2682"/>
<path d="M321.026 43.8849H336.581C340.968 43.8849 341.846 46.5775 341.846 51.4606V67.806C341.846 71.6252 340.404 74.9425 335.763 74.9425H329.427V84.5833H321.022L321.026 43.8849ZM333.442 67.2981V51.6474H329.428V67.2981H333.442Z" fill="#3F2682"/>
<path d="M343.084 76.6237V52.0867C343.084 46.9525 345.655 43.8849 349.92 43.8849H357.13C362.086 43.8849 364.344 46.9496 364.344 52.2108V76.5011C364.344 81.6966 361.96 84.576 357.382 84.576H349.924C345.78 84.576 343.084 81.8849 343.084 76.6237ZM356.004 76.8747V51.6474H351.428V76.8762L356.004 76.8747Z" fill="#3F2682"/>
<path d="M366.584 43.8849H382.135C386.522 43.8849 387.399 46.5775 387.399 51.4606V67.806C387.399 71.6252 385.956 74.9425 381.315 74.9425H374.98V84.5833H366.575L366.584 43.8849ZM379.003 67.2981V51.6474H374.989V67.2981H379.003Z" fill="#3F2682"/>
<path d="M409.988 43.8849V76.5011C409.988 81.6966 407.605 84.576 403.025 84.576H395.624C391.485 84.576 388.787 81.8849 388.787 76.6252V43.8849H397.122V76.8762H401.583V43.8849H409.988Z" fill="#3F2682"/>
<path d="M447.121 43.8849H432.38L428.87 76.8762H420.274V43.8849H411.869V84.576H436.518L437.145 77.0644H442.164L442.791 84.576H451.259L447.121 43.8849ZM437.774 69.5514L439.217 51.7102H440.157L441.601 69.5514H437.774Z" fill="#3F2682"/>
<path d="M452.075 43.8849H460.48V84.576H452.075V43.8849Z" fill="#3F2682"/>
<path d="M462.425 84.576V43.8849H477.925C481.813 43.8849 483.319 46.0141 483.319 51.3351V64.6683C483.319 68.4875 482.503 70.6168 480.497 71.4924L483.946 84.576H475.541L472.404 72.4323H470.837V84.576H462.425ZM475.032 64.7938V51.6474H470.83V64.7938H475.032Z" fill="#3F2682"/>
<path d="M485.09 43.8849H502.588V51.6474H493.493V60.5367H500.073V68.1752H493.493V76.8762H502.588V84.576H485.09V43.8849Z" fill="#3F2682"/>
<path d="M511.802 93.3762H172V35H511.802V93.3762ZM174.778 91.0718H509.024V37.3015H174.778V91.0718Z" fill="#3F2682"/>
<rect x="334.931" y="93.3762" width="176.871" height="29.6238" fill="#FE142D"/>
<path d="M349.751 102.074H347.601L346.286 112.733H348.947L349.612 106.993L351.778 111.495H353.727L355.877 106.993L356.527 112.733H359.188L357.889 102.074H355.707L352.753 108.556L349.751 102.074Z" fill="white"/>
<path d="M368.054 110.474H363.583V108.587H367.388V106.375H363.583V104.332H367.914V102.074H360.999V112.733H368.054V110.474Z" fill="white"/>
<path d="M376.439 110.474H372.603V102.074H369.988V112.733H376.439V110.474Z" fill="white"/>
<path d="M385.049 110.474H380.579V108.587H384.384V106.375H380.579V104.332H384.91V102.074H377.995V112.733H385.049V110.474Z" fill="white"/>
<path d="M392.507 107.813L389.32 102.074H386.984V112.733H389.568V106.916L392.832 112.733H395.09V102.074H392.507V107.813Z" fill="white"/>
<path d="M404.709 108.943C404.198 109.762 403.301 110.273 402.295 110.273C401.506 110.273 400.841 109.995 400.3 109.438C399.758 108.881 399.48 108.2 399.48 107.411C399.48 106.622 399.758 105.941 400.3 105.384C400.841 104.812 401.506 104.534 402.295 104.534C403.285 104.534 404.198 105.06 404.693 105.879C404.693 105.879 405.405 105.384 406.843 104.379C405.853 102.878 404.167 101.935 402.295 101.935C400.795 101.935 399.511 102.476 398.443 103.544C397.391 104.611 396.865 105.895 396.865 107.411C396.865 108.912 397.391 110.211 398.459 111.279C399.526 112.346 400.795 112.872 402.295 112.872C404.152 112.872 405.838 111.928 406.828 110.428L404.709 108.943Z" fill="white"/>
<path d="M410.99 106.282V102.074H408.406V112.733H410.99V108.587H414.239V112.733H416.868V102.074H414.239V106.282H410.99Z" fill="white"/>
<path d="M418.65 107.411C418.65 108.912 419.176 110.211 420.244 111.279C421.311 112.346 422.58 112.872 424.08 112.872C425.596 112.872 426.88 112.346 427.932 111.279C429 110.211 429.526 108.912 429.526 107.411C429.526 105.895 429 104.611 427.932 103.544C426.88 102.476 425.596 101.935 424.08 101.935C422.58 101.935 421.295 102.476 420.228 103.544C419.176 104.611 418.65 105.895 418.65 107.411ZM424.08 110.273C423.291 110.273 422.626 109.995 422.084 109.438C421.543 108.881 421.265 108.2 421.265 107.411C421.265 106.622 421.543 105.941 422.084 105.384C422.626 104.812 423.291 104.534 424.08 104.534C424.869 104.534 425.534 104.812 426.091 105.384C426.648 105.941 426.927 106.622 426.927 107.411C426.927 108.2 426.648 108.881 426.091 109.438C425.55 109.995 424.869 110.273 424.08 110.273Z" fill="white"/>
<path d="M436.832 107.813L433.645 102.074H431.309V112.733H433.893V106.916L437.157 112.733H439.415V102.074H436.832V107.813Z" fill="white"/>
<path d="M445.182 110.505L447.425 108.092C448.121 107.318 448.477 106.467 448.477 105.555C448.477 104.642 448.152 103.899 447.487 103.311C446.821 102.724 446.032 102.43 445.12 102.43C443.078 102.43 441.747 103.683 441.422 105.771L443.65 106.112C443.789 105.245 444.114 104.735 444.934 104.735C445.677 104.735 446.002 105.121 446.002 105.555C446.002 105.818 445.847 106.127 445.537 106.483L441.345 111.34V112.733H448.477V110.505H445.182Z" fill="white"/>
<path d="M452.721 107.674C452.721 105.988 453.154 104.828 454.098 104.828C454.98 104.828 455.413 105.771 455.413 107.674C455.413 109.546 454.98 110.49 454.098 110.49C453.154 110.49 452.721 109.345 452.721 107.674ZM450.246 107.674C450.246 111.139 451.53 112.872 454.098 112.872C456.619 112.872 457.888 111.139 457.888 107.674C457.888 106.127 457.656 104.951 457.099 103.961C456.558 102.971 455.521 102.43 454.098 102.43C451.53 102.43 450.246 104.178 450.246 107.674Z" fill="white"/>
<path d="M463.31 110.505L465.554 108.092C466.25 107.318 466.606 106.467 466.606 105.555C466.606 104.642 466.281 103.899 465.616 103.311C464.95 102.724 464.161 102.43 463.249 102.43C461.207 102.43 459.876 103.683 459.551 105.771L461.779 106.112C461.918 105.245 462.243 104.735 463.063 104.735C463.806 104.735 464.13 105.121 464.13 105.555C464.13 105.818 463.976 106.127 463.666 106.483L459.474 111.34V112.733H466.606V110.505H463.31Z" fill="white"/>
<path d="M472.103 110.505L474.346 108.092C475.042 107.318 475.398 106.467 475.398 105.555C475.398 104.642 475.073 103.899 474.408 103.311C473.743 102.724 472.954 102.43 472.041 102.43C469.999 102.43 468.669 103.683 468.344 105.771L470.571 106.112C470.711 105.245 471.036 104.735 471.855 104.735C472.598 104.735 472.923 105.121 472.923 105.555C472.923 105.818 472.768 106.127 472.459 106.483L468.266 111.34V112.733H475.398V110.505H472.103Z" fill="white"/>
<path d="M477.074 111.433C477.074 112.253 477.724 112.872 478.529 112.872C479.348 112.872 480.014 112.253 480.014 111.433C480.014 110.629 479.348 110.025 478.529 110.025C477.724 110.025 477.074 110.629 477.074 111.433Z" fill="white"/>
<path d="M484.579 108.602H487.936V106.375H484.579V104.332H488.817V102.074H481.964V112.733H484.579V108.602Z" fill="white"/>
<path d="M492.978 109.175H493.21L495.499 112.733H498.5L495.901 109.051C496.721 108.85 497.356 108.432 497.789 107.798C498.237 107.163 498.454 106.436 498.454 105.632C498.454 104.657 498.145 103.822 497.51 103.126C496.876 102.43 495.979 102.074 494.803 102.074H490.394V112.733H492.978V109.175ZM494.679 104.332C496.226 104.24 496.226 107.024 494.679 106.947H492.978V104.332H494.679Z" fill="white"/>
</svg>

<svg width="680" height="158" fill="none" xmlns="http://www.w3.org/2000/svg"><path fill="#fff" d="M0 0h680v158H0z"/><path d="M181.756 43.885h8.405v32.991h9.22v7.7h-17.625V43.885Zm15.576 0h8.217v7.7l-8.217 6.887V43.885Zm31.654 0V76.5c0 5.196-2.384 8.075-6.962 8.075h-7.402c-4.14 0-6.836-2.691-6.836-7.95V43.884h8.342v32.991h4.453v-32.99h8.405Zm14.28 40.691-3.011-12.082c-1.003-3.631-2.132-10.517-3.136-16.839.251 5.822.501 11.831.501 14.773v14.148h-6.899V43.885h9.786l3.638 15.213c1.192 4.632 2.508 11.894 3.575 17.778-.377-5.195-.753-10.893-.753-14.71V43.884h6.899v40.691h-10.6Zm12.754-40.691h8.403v40.691h-8.403V43.885Zm10.266 32.739V52.087c0-5.135 2.571-8.202 6.836-8.202h7.214c4.955 0 7.213 3.065 7.213 8.326V76.5c0 5.196-2.383 8.075-6.962 8.075h-7.457c-4.147 0-6.844-2.691-6.844-7.952Zm12.921.25V51.648h-4.578v25.23l4.578-.002Zm22.978 7.702-3.011-12.082c-1.005-3.631-2.134-10.517-3.137-16.839.25 5.822.502 11.831.502 14.773v14.148h-6.899V43.885h9.784l3.638 15.213c1.192 4.632 2.509 11.894 3.575 17.778-.376-5.195-.753-10.893-.753-14.71V43.884h6.901v40.691h-10.6Zm18.841-40.691h15.555c4.387 0 5.265 2.693 5.265 7.576v16.345c0 3.82-1.442 7.136-6.083 7.136h-6.336v9.641h-8.405l.004-40.698Zm12.416 23.413v-15.65h-4.014v15.65h4.014Zm9.642 9.326V52.087c0-5.135 2.571-8.202 6.836-8.202h7.21c4.956 0 7.214 3.065 7.214 8.326V76.5c0 5.196-2.384 8.075-6.962 8.075h-7.458c-4.144 0-6.84-2.691-6.84-7.952Zm12.92.25V51.648h-4.576v25.23l4.576-.002Zm10.58-32.989h15.551c4.387 0 5.264 2.693 5.264 7.576v16.345c0 3.82-1.443 7.136-6.084 7.136h-6.335v9.641h-8.405l.009-40.698Zm12.419 23.413v-15.65h-4.014v15.65h4.014Zm30.985-23.413V76.5c0 5.196-2.383 8.075-6.963 8.075h-7.401c-4.139 0-6.837-2.691-6.837-7.95V43.884h8.335v32.991h4.461v-32.99h8.405Zm37.133 0H432.38l-3.51 32.991h-8.596V43.885h-8.405v40.691h24.649l.627-7.512h5.019l.627 7.512h8.468l-4.138-40.691Zm-9.347 25.666 1.443-17.84h.94l1.444 17.84h-3.827Zm14.301-25.666h8.405v40.691h-8.405V43.885Zm10.35 40.691V43.885h15.5c3.888 0 5.394 2.13 5.394 7.45v13.333c0 3.82-.816 5.949-2.822 6.824l3.449 13.084h-8.405l-3.137-12.144h-1.567v12.144h-8.412Zm12.607-19.782V51.647h-4.202v13.147h4.202Zm10.058-20.909h17.498v7.762h-9.095v8.89h6.58v7.638h-6.58v8.701h9.095v7.7H485.09V43.885Z" fill="#3F2682"/><path d="M511.802 93.376H172V35h339.802v58.376Zm-337.024-2.304h334.246v-53.77H174.778v53.77Z" fill="#3F2682"/><path fill="#FE142D" d="M334.931 93.376h176.871V123H334.931z"/><path d="M349.751 102.074h-2.15l-1.315 10.659h2.661l.665-5.74 2.166 4.502h1.949l2.15-4.502.65 5.74h2.661l-1.299-10.659h-2.182l-2.954 6.482-3.002-6.482Zm18.303 8.4h-4.471v-1.887h3.805v-2.212h-3.805v-2.043h4.331v-2.258h-6.915v10.659h7.055v-2.259Zm8.385 0h-3.836v-8.4h-2.615v10.659h6.451v-2.259Zm8.61 0h-4.47v-1.887h3.805v-2.212h-3.805v-2.043h4.331v-2.258h-6.915v10.659h7.054v-2.259Zm7.458-2.661-3.187-5.739h-2.336v10.659h2.584v-5.817l3.264 5.817h2.258v-10.659h-2.583v5.739Zm12.202 1.13a2.827 2.827 0 0 1-2.414 1.33c-.789 0-1.454-.278-1.995-.835a2.814 2.814 0 0 1-.82-2.027c0-.789.278-1.47.82-2.027.541-.572 1.206-.85 1.995-.85.99 0 1.903.526 2.398 1.345 0 0 .712-.495 2.15-1.5a5.433 5.433 0 0 0-4.548-2.444c-1.5 0-2.784.541-3.852 1.609-1.052 1.067-1.578 2.351-1.578 3.867 0 1.501.526 2.8 1.594 3.868 1.067 1.067 2.336 1.593 3.836 1.593a5.43 5.43 0 0 0 4.533-2.444l-2.119-1.485Zm6.281-2.661v-4.208h-2.584v10.659h2.584v-4.146h3.249v4.146h2.629v-10.659h-2.629v4.208h-3.249Zm7.66 1.129c0 1.501.526 2.8 1.594 3.868 1.067 1.067 2.336 1.593 3.836 1.593 1.516 0 2.8-.526 3.852-1.593 1.068-1.068 1.594-2.367 1.594-3.868 0-1.516-.526-2.8-1.594-3.867-1.052-1.068-2.336-1.609-3.852-1.609-1.5 0-2.785.541-3.852 1.609-1.052 1.067-1.578 2.351-1.578 3.867Zm5.43 2.862c-.789 0-1.454-.278-1.996-.835a2.817 2.817 0 0 1-.819-2.027c0-.789.278-1.47.819-2.027.542-.572 1.207-.85 1.996-.85a2.69 2.69 0 0 1 2.011.85 2.77 2.77 0 0 1 .836 2.027 2.77 2.77 0 0 1-.836 2.027c-.541.557-1.222.835-2.011.835Zm12.752-2.46-3.187-5.739h-2.336v10.659h2.584v-5.817l3.264 5.817h2.258v-10.659h-2.583v5.739Zm8.35 2.692 2.243-2.413c.696-.774 1.052-1.625 1.052-2.537 0-.913-.325-1.656-.99-2.244-.666-.587-1.455-.881-2.367-.881-2.042 0-3.373 1.253-3.698 3.341l2.228.341c.139-.867.464-1.377 1.284-1.377.743 0 1.068.386 1.068.82 0 .263-.155.572-.465.928l-4.192 4.857v1.393h7.132v-2.228h-3.295Zm7.539-2.831c0-1.686.433-2.846 1.377-2.846.882 0 1.315.943 1.315 2.846 0 1.872-.433 2.816-1.315 2.816-.944 0-1.377-1.145-1.377-2.816Zm-2.475 0c0 3.465 1.284 5.198 3.852 5.198 2.521 0 3.79-1.733 3.79-5.198 0-1.547-.232-2.723-.789-3.713-.541-.99-1.578-1.531-3.001-1.531-2.568 0-3.852 1.748-3.852 5.244Zm13.064 2.831 2.244-2.413c.696-.774 1.052-1.625 1.052-2.537 0-.913-.325-1.656-.99-2.244-.666-.587-1.455-.881-2.367-.881-2.042 0-3.373 1.253-3.698 3.341l2.228.341c.139-.867.464-1.377 1.284-1.377.743 0 1.067.386 1.067.82 0 .263-.154.572-.464.928l-4.192 4.857v1.393h7.132v-2.228h-3.296Zm8.793 0 2.243-2.413c.696-.774 1.052-1.625 1.052-2.537 0-.913-.325-1.656-.99-2.244-.665-.587-1.454-.881-2.367-.881-2.042 0-3.372 1.253-3.697 3.341l2.227.341c.14-.867.465-1.377 1.284-1.377.743 0 1.068.386 1.068.82 0 .263-.155.572-.464.928l-4.193 4.857v1.393h7.132v-2.228h-3.295Zm4.971.928c0 .82.65 1.439 1.455 1.439.819 0 1.485-.619 1.485-1.439 0-.804-.666-1.408-1.485-1.408-.805 0-1.455.604-1.455 1.408Zm7.505-2.831h3.357v-2.227h-3.357v-2.043h4.238v-2.258h-6.853v10.659h2.615v-4.131Zm8.399.573h.232l2.289 3.558h3.001l-2.599-3.682c.82-.201 1.455-.619 1.888-1.253.448-.635.665-1.362.665-2.166 0-.975-.309-1.81-.944-2.506-.634-.696-1.531-1.052-2.707-1.052h-4.409v10.659h2.584v-3.558Zm1.701-4.843c1.547-.092 1.547 2.692 0 2.615h-1.701v-2.615h1.701Z" fill="#fff"/></svg>
